img/twitter.svg

<svg width="24" height="24" viewBox="0 0 24 24" fill="none" xmlns="http://www.w3.org/2000/svg">
<path d="M21.534 7.113C22.5043 6.41852 23.34 5.55306 24 4.559C23.107 4.95 22.157 5.209 21.165 5.335C22.195 4.72408 22.9653 3.7567 23.33 2.616C22.3654 3.18778 21.3102 3.59058 20.21 3.807C19.5356 3.08618 18.6599 2.58494 17.6969 2.36844C16.7338 2.15194 15.7279 2.2302 14.8099 2.59304C13.8919 2.95588 13.1043 3.58652 12.5495 4.40297C11.9947 5.21941 11.6983 6.18389 11.699 7.171C11.699 7.561 11.732 7.936 11.813 8.293C7.723 8.093 4.103 6.133 1.671 3.146C1.23125 3.90118 0.998746 4.75911 0.997 5.633C0.997 7.337 1.874 8.847 3.183 9.722C2.40415 9.70099 1.64176 9.49316 0.96 9.116V9.17C0.961284 10.3062 1.35396 11.4073 2.07193 12.2879C2.7899 13.1685 3.78933 13.7749 4.902 14.005C4.501 14.115 4.065 14.167 3.612 14.167C3.297 14.167 2.979 14.149 2.681 14.083C3.318 16.031 5.128 17.464 7.278 17.511C5.53602 18.8726 3.38801 19.6113 1.177 19.609C0.774 19.609 0.387 19.591 0 19.542C2.24994 20.9915 4.87155 21.7584 7.548 21.75C16.231 21.75 21.89 14.506 21.534 7.113Z" fill="#3391AC"/>
</svg>

<svg width="24" height="24" fill="none" xmlns="http://www.w3.org/2000/svg"><path d="M21.534 7.113A9.822 9.822 0 0024 4.559c-.893.391-1.843.65-2.835.776a4.894 4.894 0 002.165-2.719 9.845 9.845 0 01-3.12 1.191 4.92 4.92 0 00-8.511 3.364c0 .39.033.765.114 1.122-4.09-.2-7.71-2.16-10.142-5.147a4.962 4.962 0 00-.674 2.487c0 1.704.877 3.214 2.186 4.089A4.863 4.863 0 01.96 9.116v.054a4.943 4.943 0 003.942 4.835c-.401.11-.837.162-1.29.162-.315 0-.633-.018-.931-.084.637 1.948 2.447 3.381 4.597 3.428a9.89 9.89 0 01-6.101 2.098c-.403 0-.79-.018-1.177-.067a13.857 13.857 0 007.548 2.208c8.683 0 14.342-7.244 13.986-14.637z" fill="#3391AC"/></svg>
